X: 708
T: Ey Gözü Âhû
C: Ahmet Avni Konuk
O: Turkey
F: http://compmusic.upf.edu/node/140
N: mahurbuselik--kupe--agiraksak--ey--ahmet_avni_konuk
N: makam= mahurbuselik
N: form= kupe
N: usul= agiraksak = 9/4
M: 9/4
L: 1/16
K: C ^9/8f   
Q: 1/4=60
%%MIDI tuningsystem comma53
g8 z2e4f2 g4 f2a2 g8 z4  | f2g2 f2e2 f2g2 f2e2 a2g2 g2f2 f2e2 f2g2 f3e  | 
w:  Ah  ey  gö zü  *  *  â  |  hû  *  *  *  *  *  bi *  zi  *  *  *  mah  | 
d8 z2e4f2 g8 a2b2 a2b2 a2g2  | a2b2 a2g2 c'4 b2a2 a2g2 g2f2 g8 z4  | 
w:  *  rûm_ ı  vasl  et  |  me  *  *  *  *  a *  man    | 
z8 z2e4f2 g4 g2a2 {b}a4 g4 =f4  | \
w:  Bezm_ i  Mâ *  *  *  hur   | 
e4 e2d2 d4 d2c2 c2B2 B2A2 A4 B4 A2G2  | 
w:  Bû *  *  se *  *  lik *  *  *  le   | 
G6c2 z2c4c2 c2B2 c2d2 e2d2 c3B A4  | \
w:  *  *  pür  ni şan  *  *  *  ey  | 
B2c2 B2A2 d4 c2B2 B2A2 A2^G2 A8 z4  | 
w:  le  *  *  *  *  he *  man    | 
|


